X: 872
T: Alex Doig's
R: jig
M: 6/8
K: Dmajor
f2e dcB|A2d F2A|G2B EFG|Ace gfe|
f2e dcB|ABd F2A|G2e cBc|d3 d3:|
|:e2c A2A|f2d A2A|~g3 ~f3|efc ABc|
e2c A2A|f2d A2f|gfe ABc|dAF D3:|

